packages/core/src/svgs/networks/branded/meter.svg

<svg width="24" height="24" viewBox="0 0 24 24" fill="none" xmlns="http://www.w3.org/2000/svg">
<path fill-rule="evenodd" clip-rule="evenodd" d="M20.9109 10.9195C20.9525 11.273 20.9758 11.6335 20.9758 11.9999C20.9758 16.9698 16.9575 21 11.9994 21C8.38963 21 5.27828 18.8635 3.85245 15.7823L5.28875 15.0578C6.44873 17.6129 9.01694 19.3892 11.9994 19.3892C16.0688 19.3892 19.3692 16.0811 19.3692 11.9999C19.3692 11.9244 19.3681 11.8489 19.3657 11.7731L20.9109 10.9195ZM11.9994 3C15.7802 3 19.0154 5.34343 20.3378 8.66199L18.8019 9.15278C17.6906 6.48566 15.0632 4.61082 11.9994 4.61082C7.93021 4.61082 4.62981 7.91864 4.62981 11.9999C4.62997 12.0503 4.63076 12.1008 4.63219 12.1512L3.12883 13.3839C3.05848 12.926 3.02318 12.4634 3.02324 12.0001C3.0242 7.02896 7.04275 3 11.9994 3Z" fill="#010E35"/>
<path fill-rule="evenodd" clip-rule="evenodd" d="M2 15.5984L10.779 8.39893L10.415 11.3926L15.5386 8.48152L15.2786 11.3241L22 9.17808L12.8843 14.212L13.5653 11.3475L8.29903 14.4421L8.64693 12.245L2 15.5984Z" fill="#010E35"/>
</svg>

<svg xmlns="http://www.w3.org/2000/svg" width="24" height="24" fill="none" viewBox="0 0 24 24">
    <path fill="#010E35" fill-rule="evenodd" d="M20.91 10.92q.065.53.066 1.08c0 4.97-4.018 9-8.977 9-3.61 0-6.72-2.137-8.147-5.218l1.437-.724a7.37 7.37 0 0 0 6.71 4.331c4.07 0 7.37-3.308 7.37-7.39q0-.112-.003-.226zM12 3c3.78 0 7.015 2.343 8.338 5.662l-1.536.49a7.37 7.37 0 0 0-6.803-4.541C7.93 4.61 4.63 7.919 4.63 12l.003.151-1.503 1.233A9 9 0 0 1 3.023 12C3.024 7.03 7.043 3 12 3" clip-rule="evenodd"/>
    <path fill="#010E35" fill-rule="evenodd" d="m2 15.598 8.779-7.2-.364 2.995 5.124-2.911-.26 2.842L22 9.178l-9.116 5.034.681-2.864L8.3 14.442l.348-2.197z" clip-rule="evenodd"/>
</svg>
